src/assets/duotone/EmptyWalletTime.svg

<svg width="24" height="24" viewBox="0 0 24 24"  xmlns="http://www.w3.org/2000/svg">
<path d="M5 15C4.06 15 3.19 15.33 2.5 15.88C1.58 16.61 1 17.74 1 19C1 21.21 2.79 23 5 23C6.01 23 6.93 22.62 7.64 22C8.47 21.27 9 20.2 9 19C9 16.79 7.21 15 5 15ZM6 19.25C6 19.51 5.86 19.76 5.64 19.89L4.39 20.64C4.27 20.71 4.14 20.75 4 20.75C3.75 20.75 3.5 20.62 3.36 20.39C3.15 20.03 3.25999 19.57 3.62 19.36L4.50999 18.83V17.75C4.50999 17.34 4.84999 17 5.25999 17C5.66999 17 6.00999 17.34 6.00999 17.75V19.25H6Z" />
<path opacity="0.4" d="M19.48 12.95H21.5V11.51C21.5 9.44001 19.81 7.75 17.74 7.75H6.25999C4.18999 7.75 2.5 9.44001 2.5 11.51V15.88C3.19 15.33 4.06 15 5 15C7.21 15 9 16.79 9 19C9 19.75 8.79 20.46 8.42 21.06C8.21 21.42 7.94 21.74 7.63 22H17.74C19.81 22 21.5 20.31 21.5 18.24V17.05H19.6C18.52 17.05 17.53 16.26 17.44 15.18C17.38 14.55 17.62 13.96 18.04 13.55C18.41 13.17 18.92 12.95 19.48 12.95Z" />
<path d="M14.85 3.95V7.74999H6.25999C4.18999 7.74999 2.5 9.44 2.5 11.51V7.84002C2.5 6.65002 3.23 5.58997 4.34 5.16997L12.28 2.16997C13.52 1.70997 14.85 2.62 14.85 3.95Z" />
<path d="M22.5598 13.97V16.03C22.5598 16.58 22.1198 17.03 21.5598 17.05H19.5998C18.5198 17.05 17.5298 16.26 17.4398 15.18C17.3798 14.55 17.6198 13.96 18.0398 13.55C18.4098 13.17 18.9198 12.95 19.4798 12.95H21.5598C22.1198 12.97 22.5598 13.42 22.5598 13.97Z" />
<path d="M14 12.75H7C6.59 12.75 6.25 12.41 6.25 12C6.25 11.59 6.59 11.25 7 11.25H14C14.41 11.25 14.75 11.59 14.75 12C14.75 12.41 14.41 12.75 14 12.75Z" />
</svg>

<?xml version="1.0" encoding="UTF-8"?>
<svg width="24" height="24" viewBox="0 0 24 24" xmlns="http://www.w3.org/2000/svg">
 <path d="m5 15c-0.94 0-1.81 0.33-2.5 0.88-0.92 0.73-1.5 1.86-1.5 3.12 0 2.21 1.79 4 4 4 1.01 0 1.93-0.38 2.64-1 0.83-0.73 1.36-1.8 1.36-3 0-2.21-1.79-4-4-4zm1 4.25c0 0.26-0.14 0.51-0.36 0.64l-1.25 0.75c-0.12 0.07-0.25 0.11-0.39 0.11-0.25 0-0.5-0.13-0.64-0.36-0.21-0.36-0.10001-0.82 0.26-1.03l0.88999-0.53v-1.08c0-0.41 0.34-0.75 0.75-0.75s0.75 0.34 0.75 0.75v1.5h-0.00999z"/>
 <path d="m19.48 12.95h2.02v-1.44c0-2.07-1.69-3.76-3.76-3.76h-11.48c-2.07 0-3.76 1.69-3.76 3.76v4.37c0.69-0.55 1.56-0.88 2.5-0.88 2.21 0 4 1.79 4 4 0 0.75-0.21 1.46-0.58 2.06-0.21 0.36-0.48 0.68-0.79 0.94h10.11c2.07 0 3.76-1.69 3.76-3.76v-1.19h-1.9c-1.08 0-2.07-0.79-2.16-1.87-0.06-0.63 0.18-1.22 0.6-1.63 0.37-0.38 0.88-0.6 1.44-0.6z" opacity=".4"/>
 <path d="m14.85 3.95v3.8h-8.59c-2.07 0-3.76 1.69-3.76 3.76v-3.67c0-1.19 0.73-2.25 1.84-2.67l7.94-3c1.24-0.46 2.57 0.45003 2.57 1.78z"/>
 <path d="m22.56 13.97v2.06c0 0.55-0.44 1-1 1.02h-1.96c-1.08 0-2.07-0.79-2.16-1.87-0.06-0.63 0.18-1.22 0.6-1.63 0.37-0.38 0.88-0.6 1.44-0.6h2.08c0.56 0.02 1 0.47 1 1.02z"/>
 <path d="m14 12.75h-7c-0.41 0-0.75-0.34-0.75-0.75s0.34-0.75 0.75-0.75h7c0.41 0 0.75 0.34 0.75 0.75s-0.34 0.75-0.75 0.75z"/>
</svg>
